assets/icons/folder_storybook.svg

<svg xmlns="http://www.w3.org/2000/svg" width="16" height="16" viewBox="0 0 16 16">
	<g fill="none" stroke-linecap="round" stroke-linejoin="round">
		<path stroke="#4c4f69" d="M4.5 4.5H12c.828427 0 1.5.6715729 1.5 1.5V6.5M6 13.5H2C1.1715729 13.5.5 12.828427.5 12V3.5c0-.5522847.44771525-1 1-1h5c.5522847 0 1 .4477153 1 1v1M10 13c0 .54914.528595 1 1 1 .471405 0 1-.528595 1-1 0-.471405-1-1-1-1 0 0-1-.528595-1-1 0-.471405.528595-1 1-1 .471405 0 .902399.538196 1 1" />
		<path stroke="#ea76cb" d="m 12,8.2528972 v 0.750585 M 8.5,8.5 V 15 l 5,0.500002 L 13.514549,8 Z" />
	</g>
</svg>

<?xml version="1.0" encoding="utf-8"?>
<svg xmlns="http://www.w3.org/2000/svg" width="16" height="16" viewBox="0 0 16 16">
  <g fill="none" stroke-linecap="round" stroke-linejoin="round">
    <path d="M 4.5 4.5 L 12 4.5 C 12.828 4.5 13.5 5.172 13.5 6 L 13.5 6.5 M 6 13.5 L 2 13.5 C 1.172 13.5 0.5 12.828 0.5 12 L 0.5 3.5 C 0.5 2.948 0.948 2.5 1.5 2.5 L 6.5 2.5 C 7.052 2.5 7.5 2.948 7.5 3.5 L 7.5 4.5" stroke="#8C8FA1"/>
    <path stroke="#ea76cb" d="m 12,8.2528972 v 0.750585 M 8.5,8.5 V 15 l 5,0.500002 L 13.514549,8 Z"/>
    <path d="M 10.011 13.001 C 10.011 13.55 10.539 14.001 11.011 14.001 C 11.482 14.001 12.011 13.472 12.011 13.001 C 12.011 12.529 11.011 12.001 11.011 12.001 C 11.011 12.001 10.011 11.472 10.011 11.001 C 10.011 10.529 10.539 10.001 11.011 10.001 C 11.482 10.001 11.913 10.539 12.011 11.001" stroke="#4c4f69"/>
  </g>
</svg>
